mammoth.svg

<svg width="169" height="24" viewBox="0 0 169 24" fill="none" xmlns="http://www.w3.org/2000/svg">
<g id="mammoth">
<mask id="mask0_4894_2846" style="mask-type:luminance" maskUnits="userSpaceOnUse" x="0" y="0" width="169" height="24">
<g id="clip0_1830_24">
<path id="Vector" d="M168.667 0H0.66748V24H168.667V0Z" fill="white"/>
</g>
</mask>
<g mask="url(#mask0_4894_2846)">
<g id="Group">
<path id="Vector_2" d="M30.6781 12.6209V12.5387C30.6781 12.34 30.6729 12.1619 30.6591 11.9889C30.4622 7.38103 28.0992 5.0874 23.9916 5.0874C21.4732 5.0874 19.3693 6.31558 17.7992 7.82982C16.7265 5.98841 14.8264 5.0874 12.1853 5.0874C10.1212 5.0874 8.38692 5.90619 6.94287 7.01103L6.77704 5.62012H0.66748V23.4673H7.06551V11.7199C7.97408 11.0656 8.92239 10.6973 9.87242 10.6973C11.6067 10.6973 12.4738 11.6805 12.4738 13.9725V23.469H18.8718V12.5387C18.8718 12.2527 18.8718 12.006 18.8304 11.7611C19.7804 11.1067 20.7287 10.6973 21.7202 10.6973C23.3698 10.6973 24.2784 11.7199 24.2801 14.0084V23.469H30.6781V17.5337V12.6209Z" fill="white"/>
<path id="Vector_3" d="M52.139 12.4979V5.59131H48.0936L47.3923 6.65505C45.988 5.71293 44.297 5.05859 41.9841 5.05859C36.8245 5.05859 32.6548 8.29262 32.6548 14.9234C32.6548 20.4905 35.5861 23.9712 40.5798 23.9712C42.7838 23.9712 44.4524 23.2638 45.7393 22.3011V23.4299H52.1373V12.4979H52.139ZM42.6439 18.363C40.2498 18.363 39.1772 16.931 39.1772 14.5158C39.1772 12.1005 40.2913 10.3807 43.264 10.3807C44.1726 10.3807 44.9983 10.5452 45.741 10.749V17.4209C44.8324 17.9947 43.8427 18.363 42.6456 18.363H42.6439Z" fill="white"/>
<path id="Vector_4" d="M111.603 14.4624C111.603 8.52698 115.483 5.0874 121.387 5.0874C127.291 5.0874 130.963 8.52527 130.963 14.3801C130.963 20.235 127.247 24 121.221 24C115.194 24 111.603 20.2744 111.603 14.4624ZM124.523 14.4213C124.523 11.5144 123.285 9.83567 121.345 9.83567C119.405 9.83567 118.084 11.5144 118.084 14.4213C118.084 17.3281 119.364 19.2106 121.304 19.2106C123.243 19.2106 124.523 17.3692 124.523 14.4213Z" fill="white"/>
<path id="Vector_5" d="M147.729 22.6092C146.325 23.5924 143.684 24.0001 141.908 24.0001C137.409 24.0001 134.726 21.8709 134.726 17.2049V10.3685H132.249V5.62026H134.726V1.11865H141.124V5.62026H146.862V10.3685H141.124V15.6495C141.124 17.7376 141.908 18.9247 144.261 18.9247C145.169 18.9247 146.408 18.6797 147.398 18.147L147.728 22.6092H147.729Z" fill="white"/>
<path id="Vector_6" d="M168.667 12.6209V12.5387C168.667 12.3486 168.662 12.1773 168.65 12.0094C168.461 7.38791 166.133 5.08743 161.939 5.08743C159.751 5.08743 157.935 5.86511 156.45 7.01106V0H150.052V23.4673H156.45V11.8416C157.441 11.105 158.514 10.6956 159.669 10.6956C161.445 10.6956 162.352 11.7182 162.352 14.0118V23.4673H168.667V12.6192V12.6209Z" fill="white"/>
<path id="Vector_7" d="M110.515 19.4965C110.309 19.5787 109.936 19.6198 109.689 19.6198C108.492 19.6198 108.079 19.1282 108.079 17.5317V12.619C108.079 7.58463 105.685 5.08716 101.393 5.08716C98.8745 5.08716 96.7689 6.31534 95.2004 7.82958C94.2366 6.17317 92.6025 5.28073 90.3639 5.11628C90.3397 5.11457 90.3155 5.11286 90.2914 5.11115C90.0616 5.09573 89.8284 5.08545 89.5866 5.08545H89.5762C89.4346 5.08545 89.2947 5.09059 89.1565 5.09744C89.1099 5.10087 89.0632 5.10429 89.0166 5.10772C88.9216 5.11457 88.8266 5.12314 88.7333 5.13341C88.6798 5.14027 88.6262 5.1454 88.5727 5.15397C88.488 5.16596 88.4034 5.17795 88.3205 5.19165C88.2635 5.20022 88.2065 5.2105 88.1512 5.22077C88.0769 5.23448 88.0044 5.25161 87.9301 5.26702C86.1354 5.661 84.6033 6.65793 83.3924 7.82615C82.4303 6.17488 80.8014 5.28244 78.5714 5.11457C78.5403 5.11286 78.5092 5.11115 78.4782 5.10772C78.2536 5.09402 78.0273 5.08374 77.7907 5.08374H77.7803C77.6335 5.08374 77.4884 5.08888 77.345 5.09744C77.3105 5.09915 77.2759 5.10258 77.2431 5.10429C77.1308 5.11286 77.0203 5.12142 76.9097 5.13513C76.8735 5.13855 76.8372 5.14369 76.8009 5.14883C76.6904 5.16253 76.5798 5.17966 76.471 5.19851C76.4399 5.20364 76.4088 5.20878 76.3777 5.21392C76.2534 5.23619 76.1307 5.2636 76.0081 5.291C75.9943 5.29443 75.9804 5.29614 75.9666 5.29957C75.8336 5.33211 75.7023 5.36809 75.5728 5.40577C75.521 5.42119 75.4691 5.43832 75.4191 5.45545C75.35 5.47771 75.2826 5.49998 75.2152 5.52225C75.134 5.54966 75.0546 5.58049 74.9751 5.61132C74.9475 5.6216 74.9181 5.63359 74.8905 5.64387C73.6226 6.14576 72.5154 6.93371 71.593 7.82444C70.5203 5.98303 68.6203 5.08203 65.9792 5.08203C63.915 5.08203 62.1808 5.90081 60.7368 7.00566L60.5709 5.61475H54.4614V23.4618H60.8594V11.7197C61.768 11.0654 62.7163 10.6971 63.6663 10.6971C65.4005 10.6971 66.2677 11.6803 66.2677 13.9722V23.4688H72.6657V12.5385C72.6657 12.2524 72.6657 12.0058 72.6242 11.7608C73.5674 11.1099 74.5105 10.7022 75.4951 10.6971C75.7766 10.6971 76.0357 10.7279 76.2706 10.7844C77.3053 11.0397 77.9185 11.8773 78.0463 13.3933C78.0601 13.5765 78.0688 13.7667 78.0688 13.9705V23.4671H84.472V17.5317V12.5368C84.472 12.4066 84.4685 12.2867 84.4634 12.1702C84.4634 12.1445 84.4599 12.1171 84.4582 12.0914C84.4564 12.0572 84.4547 12.0212 84.453 11.9869C84.4495 11.9064 84.4409 11.8311 84.4357 11.7523C85.3771 11.1048 86.3185 10.6988 87.2996 10.6954C87.5449 10.6954 87.7712 10.7194 87.9819 10.7622C89.2083 11.0191 89.8751 12.0469 89.8751 14.0048V23.4653H96.2748V12.5351C96.2748 12.3038 96.2697 12.1017 96.2472 11.903C96.2455 11.8533 96.2386 11.8054 96.2368 11.7557C97.1851 11.1013 98.1334 10.6937 99.1232 10.6937C100.774 10.6937 101.683 11.7163 101.683 14.0099V18.5937C101.683 22.9326 103.789 23.9981 106.76 23.9981C108.824 23.9981 110.021 23.5063 110.805 23.097L110.516 19.4947L110.515 19.4965Z" fill="white"/>
</g>
</g>
</g>
</svg>

<svg xmlns="http://www.w3.org/2000/svg" width="169" height="24" fill="none"><mask id="a" width="169" height="24" x="0" y="0" maskUnits="userSpaceOnUse" style="mask-type:luminance"><path fill="#fff" d="M168.667 0h-168v24h168z"/></mask><g fill="#fff" mask="url(#a)"><path d="M30.678 12.62v-.081c0-.199-.005-.377-.019-.55-.197-4.608-2.56-6.902-6.667-6.902-2.519 0-4.623 1.229-6.193 2.743-1.072-1.842-2.973-2.743-5.614-2.743-2.064 0-3.798.82-5.242 1.924l-.166-1.39H.667v17.846h6.399V11.72c.908-.654 1.856-1.023 2.806-1.023 1.735 0 2.602.984 2.602 3.276v9.496h6.398v-10.93c0-.286 0-.533-.042-.778.95-.654 1.899-1.064 2.89-1.064 1.65 0 2.558 1.023 2.56 3.311v9.461h6.398V12.621M52.139 12.498V5.59h-4.045l-.702 1.064c-1.404-.942-3.095-1.596-5.408-1.596-5.16 0-9.33 3.234-9.33 9.864 0 5.568 2.932 9.048 7.926 9.048 2.204 0 3.872-.707 5.16-1.67v1.129h6.397V12.498zm-9.495 5.865c-2.394 0-3.467-1.432-3.467-3.847s1.114-4.135 4.087-4.135c.909 0 1.734.164 2.477.368v6.672c-.909.574-1.898.942-3.095.942zM111.603 14.462c0-5.935 3.88-9.375 9.784-9.375s9.576 3.438 9.576 9.293-3.716 9.62-9.742 9.62-9.618-3.726-9.618-9.538m12.92-.04c0-2.908-1.238-4.586-3.178-4.586s-3.261 1.678-3.261 4.585 1.28 4.79 3.22 4.79c1.939 0 3.219-1.842 3.219-4.79M147.729 22.61c-1.404.982-4.045 1.39-5.821 1.39-4.499 0-7.182-2.13-7.182-6.795v-6.836h-2.477V5.62h2.477V1.12h6.398V5.62h5.738v4.748h-5.738v5.281c0 2.089.784 3.276 3.137 3.276.908 0 2.147-.245 3.137-.778l.33 4.462zM168.667 12.62v-.081c0-.19-.005-.362-.017-.53-.189-4.621-2.517-6.922-6.711-6.922-2.188 0-4.004.778-5.489 1.924V0h-6.398v23.467h6.398V11.842c.991-.737 2.064-1.146 3.219-1.146 1.776 0 2.683 1.022 2.683 3.316v9.455h6.315zM110.515 19.497c-.206.082-.579.123-.826.123-1.197 0-1.61-.492-1.61-2.088v-4.913c0-5.034-2.394-7.532-6.686-7.532-2.519 0-4.624 1.228-6.193 2.743-.963-1.657-2.597-2.55-4.836-2.714l-.073-.005q-.344-.024-.704-.026h-.01q-.213.002-.42.012l-.14.01q-.143.011-.284.026-.08.009-.16.021a11 11 0 0 0-.422.067q-.11.02-.22.046c-1.796.394-3.328 1.39-4.539 2.56-.962-1.652-2.59-2.545-4.82-2.712l-.094-.007a11 11 0 0 0-.687-.024h-.01a7 7 0 0 0-.436.013q-.052.004-.102.007a7 7 0 0 0-.772.095l-.093.015a9 9 0 0 0-.37.077q-.021.004-.041.009a9 9 0 0 0-.394.106l-.154.05-.204.066q-.12.042-.24.09l-.084.032c-1.268.502-2.376 1.29-3.298 2.18-1.073-1.841-2.973-2.742-5.614-2.742-2.064 0-3.798.819-5.242 1.924l-.166-1.391h-6.11v17.847h6.398V11.72c.909-.655 1.857-1.023 2.807-1.023 1.734 0 2.602.983 2.602 3.275v9.497h6.398v-10.93c0-.287 0-.533-.042-.778.943-.651 1.886-1.059 2.871-1.064q.422 0 .776.087c1.034.256 1.647 1.093 1.775 2.61q.022.272.023.576v9.497h6.403v-10.93q0-.193-.009-.367-.001-.039-.005-.079l-.005-.104q-.008-.118-.017-.235c.941-.647 1.882-1.053 2.864-1.057q.367.001.682.067c1.226.257 1.893 1.285 1.893 3.243v9.46h6.4v-10.93a6 6 0 0 0-.028-.632c-.001-.05-.008-.098-.01-.147.948-.655 1.896-1.062 2.886-1.062 1.651 0 2.56 1.022 2.56 3.316v4.584c0 4.339 2.106 5.404 5.077 5.404 2.064 0 3.261-.492 4.045-.901l-.289-3.602z"/></g></svg>
